Obsidian-SemiLight/actions/22s/view-close.svg

<svg viewBox="0 0 22 22" xmlns="http://www.w3.org/2000/svg"><path d="m3 3v16h16v-16zm1 4h14v11h-14z" fill="#4d4d4d"/><path d="m8.7070312 9-.7070312.7070312 2.292969 2.2929688-2.292969 2.292969.7070312.707031 2.2929688-2.292969 2.292969 2.292969.707031-.707031-2.292969-2.292969 2.292969-2.2929688-.707031-.7070312-2.292969 2.292969z" fill="#da4453"/></svg>

<svg xmlns="http://www.w3.org/2000/svg" viewBox="0 0 22 22">
  <defs id="defs3051">
    <style type="text/css" id="current-color-scheme">
      .ColorScheme-Text {
        color:#4d4d4d;
      }
      .ColorScheme-Highlight {
        color:#3daee9;
      }
      </style>
  </defs>
 <path 
     style="fill:currentColor;fill-opacity:1;stroke:none" 
     d="M 3 3 L 3 19 L 19 19 L 19 3 L 3 3 z M 4 7 L 18 7 L 18 18 L 4 18 L 4 7 z "
     class="ColorScheme-Text"
     />
 <path 
     style="fill:#da4453;fill-opacity:1;stroke:none" 
     d="M 8.7070312 9 L 8 9.7070312 L 10.292969 12 L 8 14.292969 L 8.7070312 15 L 11 12.707031 L 13.292969 15 L 14 14.292969 L 11.707031 12 L 14 9.7070312 L 13.292969 9 L 11 11.292969 L 8.7070312 9 z "
     />
</svg>
